web/public/images/fly.svg

<svg fill="none" height="42" viewBox="0 0 41 42" width="41" xmlns="http://www.w3.org/2000/svg" xmlns:xlink="http://www.w3.org/1999/xlink"><clipPath id="a"><path d="m0 0h41v42h-41z"/></clipPath><g clip-path="url(#a)" clip-rule="evenodd" fill="#a86338" fill-rule="evenodd"><path d="m28.7065 5.06689h4.727c4.2045 0 7.618 3.41351 7.618 7.61801v16.6215c0 4.2045-3.4135 7.618-7.618 7.618h-.3725c-2.164-.3385-3.1025-.9875-3.8275-1.536l-6.01-4.9415c-.1506-.1218-.3384-.1882-.532-.1882s-.3814.0664-.532.1882l-1.9525 1.6055-5.499-4.5215c-.1504-.122-.3381-.1886-.5317-.1886-.1937 0-.3814.0666-.5318.1886l-7.6395 6.7205c-1.5375 1.2505-2.5545 1.0195-3.214.947-1.7035-1.398-2.791-3.519-2.791-5.892v-16.6215c0-4.2045 3.4135-7.61801 7.6185-7.61801h4.7165l-.0085.019-.159.4635-.0495.159-.214.9495-.0295.1665-.094.951-.0125.261-.002.09151.009.436.0215.2555.053.39999.0675.36001.08.3315.104.359.27.76.089.228.47.993.166.305.5435.933.208.3365.7585 1.117.1095.148.987 1.2845.319.3955 1.127 1.3175.2315.2535.929.9995.368.381.608.604-.122.102-.076.0685c-.2065.1925-.4025.397-.586.612-.0882.104-.1722.2114-.252.322-.1217.1689-.2305.3468-.3255.532-.0486.0962-.0921.1948-.1305.2955-.099.2572-.1585.528-.1765.803l-.0035.2375c.0086.3349.0769.6655.2015.9765.1263.3152.3104.604.543.8515.169.18.3615.337.5725.466.1795.11.371.2005.57.2695.4326.1466.8916.1988 1.346.153h.0025c.3877-.0376.7646-.1495 1.11-.3295.149-.079.291-.1705.424-.2745.3809-.2964.676-.6888.855-1.137.14-.3495.2085-.723.2025-1.099l-.011-.1965c-.0254-.2596-.0873-.5143-.184-.7565-.0419-.1055-.0895-.2087-.1425-.309-.0984-.1849-.2104-.3622-.335-.5305-.057-.077-.116-.1526-.177-.2265-.2029-.2423-.4214-.4711-.654-.685l-.1645-.14.2785-.275 1.197-1.25.414-.4545.6435-.724.4185-.4895.597-.727.404-.508.5935-.7935.2995-.4105.425-.6355.354-.5415.667-1.1615.3815-.762.011-.0235.292-.707c.0039-.0091.0072-.0185.01-.028l.3145-.981.033-.14301.1365-.78099.0265-.2115.008-.12951.0095-.489-.0025-.091-.025-.43799-.031-.34001-.155-.9805c-.0025-.013-.005-.026-.009-.039l-.199-.725-.0685-.2015zm2.247 20.72751c-.4766.0067-.9318.199-1.2689.5361s-.5294.7923-.5361 1.2689c.007.4765.1994.9315.5364 1.2684.337.337.7921.5293 1.2686.5361.4765-.007.9316-.1993 1.2686-.5362.3371-.3369.5297-.7918.5369-1.2683-.0069-.4767-.1993-.9319-.5364-1.2689-.3372-.3371-.7924-.5294-1.2691-.5361z"/><path d="m17.501 36.5395 4.898-4.1335c.0898-.0751.203-.1163.3201-.1165.117-.0002.2304.0407.3204.1155l4.969 4.1345c.302.246.68.3805 1.0695.381h-12.64c.388 0 .7635-.1345 1.063-.381zm3.049-14.7555.048.014c.0155.0075.0285.018.0425.0275l.04.0355c.099.091.195.1865.2875.2845.065.0695.1285.141.1895.215.0775.0935.15.1915.216.2935.0285.045.055.0905.08.138.0215.041.041.0835.058.1265.03.075.0525.154.0595.2345l-.0015.151c-.0101.1363-.0524.2682-.1234.385-.071.1167-.1687.2149-.2851.2865-.1512.0914-.3211.1473-.497.1635l-.1865.0055-.1575-.014c-.0737-.0107-.1461-.0283-.2165-.0525-.0716-.0244-.1404-.0566-.205-.096l-.123-.09c-.1449-.1237-.2436-.2929-.28-.48-.0061-.0315-.0109-.0632-.0145-.095l-.0045-.144c.0025-.039.0085-.0775.017-.116.0215-.084.0525-.1655.0915-.243.0505-.097.108-.1905.172-.2795.1065-.144.222-.281.3455-.4105.0795-.084.161-.1655.246-.244l.0605-.0545c.042-.0275.0425-.0275.0905-.0415zm-.3095-20.074.0195-.0015v16.8325l-.042-.0775c-.5541-1.025-1.07-2.0702-1.5465-3.1335-.3866-.8607-.7367-1.7373-1.0495-2.6275-.2497-.7091-.4609-1.4311-.6325-2.163-.1325-.5815-.2345-1.1715-.2765-1.7675-.0163-.25432-.0212-.50925-.0145-.764.004-.222.013-.4435.027-.665.022-.348.0575-.6955.1085-1.0405.0405-.2715.0905-.542.152-.8095.049-.2125.106-.4235.171-.631.094-.3.2065-.593.3375-.879.048-.103.0995-.2055.1535-.306.325-.602.766-1.1565 1.3435-1.527.3752-.24427.8035-.39514 1.249-.44zm2.1825.0425 1.1325.323c.5245.1935 1.0295.4455 1.4935.7605.6324.42687 1.1775.97061 1.606 1.602.251.374.459.7775.6215 1.199.2355.6235.3815 1.277.433 1.941.015.174.0235.3485.027.523.004.162.003.3245-.01.4865-.032.3625-.1.721-.2035 1.07-.0831.2856-.181.5666-.2935.842-.14.3425-.2955.6785-.466 1.0065-.377.7285-.8115 1.426-1.2765 2.1005-.5764.829-1.1909 1.6308-1.8415 2.403-.7064.8424-1.443 1.6589-2.2085 2.448.5194-.9741 1.0042-1.9662 1.4535-2.9745.25-.562.4855-1.13.707-1.7035.2435-.63.4635-1.2685.6585-1.915.145-.4845.273-.974.3785-1.469.0905-.4245.1615-.8535.2055-1.285.037-.36.0505-.722.0415-1.083-.0034-.22099-.0116-.44187-.0245-.6625-.053-.8875-.188-1.7725-.447-2.624-.0981-.32285-.2173-.63887-.357-.946-.3315-.722-.794-1.3965-1.42-1.889z"/></g></svg>

<svg width="41" height="42" viewBox="0 0 41 42" fill="none" xmlns="http://www.w3.org/2000/svg">
<g clip-path="url(#clip0_30_427)">
<path fill-rule="evenodd" clip-rule="evenodd" d="M28.7065 5.06689H33.4335C37.638 5.06689 41.0515 8.4804 41.0515 12.6849V29.3064C41.0515 33.5109 37.638 36.9244 33.4335 36.9244H33.061C30.897 36.5859 29.9585 35.9369 29.2335 35.3884L23.2235 30.4469C23.0729 30.3251 22.8851 30.2587 22.6915 30.2587C22.4979 30.2587 22.3101 30.3251 22.1595 30.4469L20.207 32.0524L14.708 27.5309C14.5576 27.4089 14.3699 27.3423 14.1763 27.3423C13.9826 27.3423 13.7949 27.4089 13.6445 27.5309L6.005 34.2514C4.4675 35.5019 3.4505 35.2709 2.791 35.1984C1.0875 33.8004 0 31.6794 0 29.3064V12.6849C0 8.4804 3.4135 5.06689 7.6185 5.06689H12.335L12.3265 5.08589L12.1675 5.54939L12.118 5.70839L11.904 6.65789L11.8745 6.82439L11.7805 7.77539L11.768 8.03639L11.766 8.1279L11.775 8.5639L11.7965 8.8194L11.8495 9.21939L11.917 9.5794L11.997 9.9109L12.101 10.2699L12.371 11.0299L12.46 11.2579L12.93 12.2509L13.096 12.5559L13.6395 13.4889L13.8475 13.8254L14.606 14.9424L14.7155 15.0904L15.7025 16.3749L16.0215 16.7704L17.1485 18.0879L17.38 18.3414L18.309 19.3409L18.677 19.7219L19.285 20.3259L19.163 20.4279L19.087 20.4964C18.8805 20.6889 18.6845 20.8934 18.501 21.1084C18.4128 21.2124 18.3288 21.3198 18.249 21.4304C18.1273 21.5993 18.0185 21.7772 17.9235 21.9624C17.8749 22.0586 17.8314 22.1572 17.793 22.2579C17.694 22.5151 17.6345 22.7859 17.6165 23.0609L17.613 23.2984C17.6216 23.6333 17.6899 23.9639 17.8145 24.2749C17.9408 24.5901 18.1249 24.8789 18.3575 25.1264C18.5265 25.3064 18.719 25.4634 18.93 25.5924C19.1095 25.7024 19.301 25.7929 19.5 25.8619C19.9326 26.0085 20.3916 26.0607 20.846 26.0149H20.8485C21.2362 25.9773 21.6131 25.8654 21.9585 25.6854C22.1075 25.6064 22.2495 25.5149 22.3825 25.4109C22.7634 25.1145 23.0585 24.7221 23.2375 24.2739C23.3775 23.9244 23.446 23.5509 23.44 23.1749L23.429 22.9784C23.4036 22.7188 23.3417 22.4641 23.245 22.2219C23.2031 22.1164 23.1555 22.0132 23.1025 21.9129C23.0041 21.728 22.8921 21.5507 22.7675 21.3824C22.7105 21.3054 22.6515 21.2298 22.5905 21.1559C22.3876 20.9136 22.1691 20.6848 21.9365 20.4709L21.772 20.3309L22.0505 20.0559L23.2475 18.8059L23.6615 18.3514L24.305 17.6274L24.7235 17.1379L25.3205 16.4109L25.7245 15.9029L26.318 15.1094L26.6175 14.6989L27.0425 14.0634L27.3965 13.5219L28.0635 12.3604L28.445 11.5984L28.456 11.5749L28.748 10.8679C28.7519 10.8588 28.7552 10.8494 28.758 10.8399L29.0725 9.8589L29.1055 9.71589L29.242 8.9349L29.2685 8.7234L29.2765 8.59389L29.286 8.10489L29.2835 8.01389L29.2585 7.5759L29.2275 7.23589L29.0725 6.25539C29.07 6.24239 29.0675 6.22939 29.0635 6.21639L28.8645 5.49139L28.796 5.28989L28.7065 5.06689ZM30.9535 25.7944C30.4769 25.8011 30.0217 25.9934 29.6846 26.3305C29.3475 26.6676 29.1552 27.1228 29.1485 27.5994C29.1555 28.0759 29.3479 28.5309 29.6849 28.8678C30.0219 29.2048 30.477 29.3971 30.9535 29.4039C31.43 29.3969 31.8851 29.2046 32.2221 28.8677C32.5592 28.5308 32.7518 28.0759 32.759 27.5994C32.7521 27.1227 32.5597 26.6675 32.2226 26.3305C31.8854 25.9934 31.4302 25.8011 30.9535 25.7944Z" fill="#A86338"/>
<path fill-rule="evenodd" clip-rule="evenodd" d="M17.501 36.5395L22.399 32.406C22.4888 32.3309 22.602 32.2897 22.7191 32.2895C22.8361 32.2893 22.9495 32.3302 23.0395 32.405L28.0085 36.5395C28.3105 36.7855 28.6885 36.92 29.078 36.9205H16.438C16.826 36.9205 17.2015 36.786 17.501 36.5395ZM20.55 21.784L20.598 21.798C20.6135 21.8055 20.6265 21.816 20.6405 21.8255L20.6805 21.861C20.7795 21.952 20.8755 22.0475 20.968 22.1455C21.033 22.215 21.0965 22.2865 21.1575 22.3605C21.235 22.454 21.3075 22.552 21.3735 22.654C21.402 22.699 21.4285 22.7445 21.4535 22.792C21.475 22.833 21.4945 22.8755 21.5115 22.9185C21.5415 22.9935 21.564 23.0725 21.571 23.153L21.5695 23.304C21.5594 23.4403 21.5171 23.5722 21.4461 23.689C21.3751 23.8057 21.2774 23.9039 21.161 23.9755C21.0098 24.0669 20.8399 24.1228 20.664 24.139L20.4775 24.1445L20.32 24.1305C20.2463 24.1198 20.1739 24.1022 20.1035 24.078C20.0319 24.0536 19.9631 24.0214 19.8985 23.982L19.7755 23.892C19.6306 23.7683 19.5319 23.5991 19.4955 23.412C19.4894 23.3805 19.4846 23.3488 19.481 23.317L19.4765 23.173C19.479 23.134 19.485 23.0955 19.4935 23.057C19.515 22.973 19.546 22.8915 19.585 22.814C19.6355 22.717 19.693 22.6235 19.757 22.5345C19.8635 22.3905 19.979 22.2535 20.1025 22.124C20.182 22.04 20.2635 21.9585 20.3485 21.88L20.409 21.8255C20.451 21.798 20.4515 21.798 20.4995 21.784H20.55ZM20.2405 1.71L20.26 1.7085V18.541L20.218 18.4635C19.6639 17.4385 19.148 16.3933 18.6715 15.33C18.2849 14.4693 17.9348 13.5927 17.622 12.7025C17.3723 11.9934 17.1611 11.2714 16.9895 10.5395C16.857 9.958 16.755 9.368 16.713 8.772C16.6967 8.51768 16.6918 8.26275 16.6985 8.008C16.7025 7.786 16.7115 7.5645 16.7255 7.343C16.7475 6.995 16.783 6.6475 16.834 6.3025C16.8745 6.031 16.9245 5.7605 16.986 5.493C17.035 5.2805 17.092 5.0695 17.157 4.862C17.251 4.562 17.3635 4.269 17.4945 3.983C17.5425 3.88 17.594 3.7775 17.648 3.677C17.973 3.075 18.414 2.5205 18.9915 2.15C19.3667 1.90573 19.795 1.75486 20.2405 1.71ZM22.423 1.7525L23.5555 2.0755C24.08 2.269 24.585 2.521 25.049 2.836C25.6814 3.26287 26.2265 3.80661 26.655 4.438C26.906 4.812 27.114 5.2155 27.2765 5.637C27.512 6.2605 27.658 6.914 27.7095 7.578C27.7245 7.752 27.733 7.9265 27.7365 8.101C27.7405 8.263 27.7395 8.4255 27.7265 8.5875C27.6945 8.95 27.6265 9.3085 27.523 9.6575C27.4399 9.9431 27.342 10.2241 27.2295 10.4995C27.0895 10.842 26.934 11.178 26.7635 11.506C26.3865 12.2345 25.952 12.932 25.487 13.6065C24.9106 14.4355 24.2961 15.2373 23.6455 16.0095C22.9391 16.8519 22.2025 17.6684 21.437 18.4575C21.9564 17.4834 22.4412 16.4913 22.8905 15.483C23.1405 14.921 23.376 14.353 23.5975 13.7795C23.841 13.1495 24.061 12.511 24.256 11.8645C24.401 11.38 24.529 10.8905 24.6345 10.3955C24.725 9.971 24.796 9.542 24.84 9.1105C24.877 8.7505 24.8905 8.3885 24.8815 8.0275C24.8781 7.80651 24.8699 7.58563 24.857 7.365C24.804 6.4775 24.669 5.5925 24.41 4.741C24.3119 4.41815 24.1927 4.10213 24.053 3.795C23.7215 3.073 23.259 2.3985 22.633 1.906L22.423 1.7525Z" fill="#A86338"/>
</g>
<defs>
<clipPath id="clip0_30_427">
<rect width="41" height="42" fill="white"/>
</clipPath>
</defs>
</svg>
